X:5193
T:Fiddle Heads
C:Jim Magill
M:4/4
R:reel
L:1/8
K:A
A2|[E3A3][EA] [E2A2][E2A2]|cAce a2e2|a2e2 aecA|dcBA G2E2|
[E3A3][EA] [E2A2][E2A2]|cAce a2e2|E2GA Bcde|c2A2 A2:|
|:(3efg|a3a a2fg|a2e2 c2A2|[c3e3][ce] [c2e2][c2e2]|[ce][Be][Be][Be] [B2e2]e2|
a3a a2fg|a2e2 c2A2|E2GA Bcde|c2A2 A2:|
